!!!OTL: Soldatenabschied (144a), S. 321
!!!id: T0313
**kern
*clefG2
*k[]
*G:
{8d
8d
=1
4g
4b
4b
4a
=2
2g
4d}
=3
{8g
8a
=4
8b
8b
4dd
4dd
4cc
=5
4.b
16a
16b
4a}
4r
=6
{4.dd
8cc
8b
8a
4g
=7
4ee
4ee
4dd}
4r
=8
{4cc
8cc
8cc
8b
8b
4b
=9
4a
4a
4g}
==
*-
!!!minrhy: 16
!!!meters: 4/4 ]  ZZ[4
!!!cut: Soldatenabschied (144a), S. 321
!!!reg: Luxemburg
!!!trd: Singendes Volk, Esch-Alzette 1937, posth.
!!!rhy1: X_X_  X__X__X__X__  X___X__
!!!rhy2: X_X_  X_X_X__X__X__  X__.XXX__0__
!!!key: T0313  16  G 4/4 ]  ZZ[4
!!!mod: SECHSTONSKALA DUR ?]  AMBITUS[9
!!!kad: -5251
!!!akz: 131-5_3532_5365_4321_
!!!fot: 'a__as"b__c__
!!!for: 'a__b__c__d__
!!!fok: '^__^a_V__\__
!! PHRAS[GEMISCHTTAKTIG]
!!!fkt: historische, Kriegs- und Soldatenlieder
!!!bem1: Trotten, fff Margareta Schickes, um 1891,
!!!bem2: mitgeteilt: hhh Heinrich Godefroid (Lehrer);
!!!bem3: (144b)- Reuland, hhh Franz Deitz, 17.2.1911
!!!bem4: (144c)- Rodershausen, fff Lutgen,
!!!bem5: mitgeteilt, hhh Josef Bour (Lehrer)
!! THILL, Mathias:
!! PR[25] 2K[3] 2G[12] 3K[12] 3G[6] 4A[3] 4Ü[0] 5A[0] 6K[0] 6G[0]
!! 7K[0] 7G[0] 8A[0] MEHR[0] SI[37] ABS[65] SR[15] SP[22]
!! ST[12] 2k[6] 2g[18] 3k[9] 3g[2] 4d[0] 4ü[0] 5d[3] 6k[0] 6g[0]
!! 7k[0] 7g[0] 8d[0] mehr[0] si[38] dm[-1] sr[25] sp[14]
!! 1F[11] 2F[43] 3F[40] 4F[0] LF[0] 2P[6] 3P[0] 4P[0] TRI[0] DF[4] AB[70]
!! TF[0] U3K[0] U3[0] U4[0] U4Ü[0] U5[0] U6K[0] U6[0] U7K[0] U7[0]
!! N1[9] N2K[0] N2[9] N3K[0] N3[21] N4[9] N4Ü[0] N5[24] N6K[0] N6[21]
!!!n7k: 0] N7[0] O1[6] O2K[0] O2[0] O3K[0] O3[0] HÖ[0
